apps/nuxt3-ssr/assets/minified-icons/Copy.svg

<svg fill="none" xmlns="http://www.w3.org/2000/svg" viewBox="0 0 24 24"><path d="M5.5 22c-.4 0-.75-.15-1.05-.45-.3-.3-.45-.65-.45-1.05V5.425h1.5V20.5h11.85V22H5.5Zm3-3c-.4 0-.75-.15-1.05-.45-.3-.3-.45-.65-.45-1.05v-14c0-.4.15-.75.45-1.05.3-.3.65-.45 1.05-.45h11c.4 0 .75.15 1.05.45.3.3.45.65.45 1.05v14c0 .4-.15.75-.45 1.05-.3.3-.65.45-1.05.45h-11Zm0-1.5h11v-14h-11v14Zm0 0v-14 14Z" fill="currentColor"/></svg>

<svg viewBox="0 0 24 24" fill="none" xmlns="http://www.w3.org/2000/svg"><path d="M5.5 22C5.1 22 4.75 21.85 4.45 21.55C4.15 21.25 4 20.9 4 20.5V5.425H5.5V20.5H17.35V22H5.5ZM8.5 19C8.1 19 7.75 18.85 7.45 18.55C7.15 18.25 7 17.9 7 17.5V3.5C7 3.1 7.15 2.75 7.45 2.45C7.75 2.15 8.1 2 8.5 2H19.5C19.9 2 20.25 2.15 20.55 2.45C20.85 2.75 21 3.1 21 3.5V17.5C21 17.9 20.85 18.25 20.55 18.55C20.25 18.85 19.9 19 19.5 19H8.5ZM8.5 17.5H19.5V3.5H8.5V17.5ZM8.5 17.5V3.5V17.5Z" fill="currentColor"/></svg>
